src/assets/outline/EnjinCoin.svg

<?xml version="1.0" encoding="UTF-8"?>
<svg width="24" height="24" viewBox="0 0 24 24" xmlns="http://www.w3.org/2000/svg">
 <path d="m12 22.75c-5.93 0-10.75-4.82-10.75-10.75s4.82-10.75 10.75-10.75 10.75 4.82 10.75 10.75-4.82 10.75-10.75 10.75zm0-20c-5.1 0-9.25 4.15-9.25 9.25s4.15 9.25 9.25 9.25 9.25-4.15 9.25-9.25-4.15-9.25-9.25-9.25z"/>
 <path d="m15.75 16.75h-5c-2.07 0-3.75-1.68-3.75-3.75v-2c0-2.07 1.68-3.75 3.75-3.75h5c0.41 0 0.75 0.34 0.75 0.75s-0.34 0.75-0.75 0.75h-5c-1.24 0-2.25 1.01-2.25 2.25v2c0 1.24 1.01 2.25 2.25 2.25h5c0.41 0 0.75 0.34 0.75 0.75s-0.34 0.75-0.75 0.75z"/>
 <path d="m15.75 12.75h-8c-0.41 0-0.75-0.34-0.75-0.75s0.34-0.75 0.75-0.75h8c0.41 0 0.75 0.34 0.75 0.75s-0.34 0.75-0.75 0.75z"/>
</svg>

<svg width="24" height="24" viewBox="0 0 24 24"  xmlns="http://www.w3.org/2000/svg">
<path d="M12 22.75C6.07 22.75 1.25 17.93 1.25 12C1.25 6.07 6.07 1.25 12 1.25C17.93 1.25 22.75 6.07 22.75 12C22.75 17.93 17.93 22.75 12 22.75ZM12 2.75C6.9 2.75 2.75 6.9 2.75 12C2.75 17.1 6.9 21.25 12 21.25C17.1 21.25 21.25 17.1 21.25 12C21.25 6.9 17.1 2.75 12 2.75Z" />
<path d="M15.75 16.75H10.75C8.68 16.75 7 15.07 7 13V11C7 8.93 8.68 7.25 10.75 7.25H15.75C16.16 7.25 16.5 7.59 16.5 8C16.5 8.41 16.16 8.75 15.75 8.75H10.75C9.51 8.75 8.5 9.76 8.5 11V13C8.5 14.24 9.51 15.25 10.75 15.25H15.75C16.16 15.25 16.5 15.59 16.5 16C16.5 16.41 16.16 16.75 15.75 16.75Z" />
<path d="M15.75 12.75H7.75C7.34 12.75 7 12.41 7 12C7 11.59 7.34 11.25 7.75 11.25H15.75C16.16 11.25 16.5 11.59 16.5 12C16.5 12.41 16.16 12.75 15.75 12.75Z" />
</svg>
